src/images/global/icons/utility/cart/cart.svg

<?xml version="1.0" encoding="UTF-8"?>
<svg width="48px" height="48px" viewBox="0 0 48 48" version="1.1" xmlns="http://www.w3.org/2000/svg" xmlns:xlink="http://www.w3.org/1999/xlink">
    <!-- Generator: Sketch 46.2 (44496) - http://www.bohemiancoding.com/sketch -->
    <title>icon/Utility/Cart/cart</title>
    <desc>Created with Sketch.</desc>
    <defs>
        <path d="M5.61970798,5.36083758 C5.61687588,5.34766488 5.61428816,5.33439807 5.61194996,5.3210424 L4.9785422,2.07194245 L1.00980612,2.07194245 C0.452105601,2.07194245 0,1.60812233 0,1.03597122 C0,0.463820115 0.452105601,0 1.00980612,0 L5.8063852,0 C6.28774062,0 6.70218001,0.348562534 6.79658157,0.832800551 L7.43365805,4.10071942 L28.9898508,4.10071942 C29.6270853,4.10071942 30.1050191,4.69881069 29.9800471,5.33986132 L28.3811874,13.5413002 C28.2867859,14.0255382 27.8723465,14.3741007 27.3909911,14.3741007 L9.43644019,14.3741007 L9.83194759,16.4028777 L27.3909911,16.4028777 C27.9486916,16.4028777 28.4007972,16.8666978 28.4007972,17.4388489 C28.4007972,18.011 27.9486916,18.4748201 27.3909911,18.4748201 L9.00410459,18.4748201 C8.52274918,18.4748201 8.10830979,18.1262576 8.01390822,17.6420196 L7.21856773,13.5622767 C7.21573557,13.5491037 7.21314785,13.5358369 7.21080965,13.5224813 L5.61970804,5.36083789 Z M13.0012538,24 C11.6767151,24 10.6029643,22.8984272 10.6029643,21.5395683 C10.6029643,20.1807095 11.6767151,19.0791367 13.0012538,19.0791367 C14.3257926,19.0791367 15.3995434,20.1807095 15.3995434,21.5395683 C15.3995434,22.8984272 14.3257926,24 13.0012538,24 Z M23.3938418,24 C22.0693031,24 20.9955523,22.8984272 20.9955523,21.5395683 C20.9955523,20.1807095 22.0693031,19.0791367 23.3938418,19.0791367 C24.7183806,19.0791367 25.7921314,20.1807095 25.7921314,21.5395683 C25.7921314,22.8984272 24.7183806,24 23.3938418,24 Z" id="path-1"></path>
    </defs>
    <g id="Symbols" stroke="none" stroke-width="1" fill="none" fill-rule="evenodd">
        <g id="icon/Utility/Cart/cart">
            <g id="Icon" transform="translate(9.000000, 12.000000)">
                <mask id="mask-2" fill="white">
                    <use xlink:href="#path-1"></use>
                </mask>
                <use id="Mask" fill="#384048" xlink:href="#path-1"></use>
                <g id="Color/Grayscale/Night-Sky" mask="url(#mask-2)" fill="#111111">
                    <g transform="translate(-9.000000, -12.000000)" id="Swatch">
                        <rect x="0" y="0" width="48" height="48"></rect>
                    </g>
                </g>
            </g>
        </g>
    </g>
</svg>

<?xml version="1.0" encoding="utf-8"?>
<!-- Generator: Adobe Illustrator 21.0.2, SVG Export Plug-In . SVG Version: 6.00 Build 0)  -->
<svg version="1.1" id="icon_x2F_Utility_x2F_Cart_x2F_cart-Layer_1" xmlns="http://www.w3.org/2000/svg" xmlns:xlink="http://www.w3.org/1999/xlink" x="0px" y="0px"
	 viewBox="0 0 48 48" style="enable-background:new 0 0 48 48;" xml:space="preserve">
<title>icon/Utility/Cart/cart</title>
<desc>Created with Sketch.</desc>
<g id="icon_x2F_Utility_x2F_Cart_x2F_cart-Symbols">
	<g id="icon_x2F_Utility_x2F_Cart_x2F_cart">
		<g id="icon_x2F_Utility_x2F_Cart_x2F_cart-Icon" transform="translate(9.000000, 12.000000)">
			<g id="icon_x2F_Utility_x2F_Cart_x2F_cart-Mask">
				<path id="icon_x2F_Utility_x2F_Cart_x2F_cart-path-1_1_" style="fill:#384048;" d="M5.6,5.4C5.6,5.3,5.6,5.3,5.6,5.4L5,2.1H1c-0.6,0-1-0.5-1-1s0.5-1,1-1h4.8
					c0.5,0,0.9,0.3,1,0.8l0.6,3.3H29c0.6,0,1.1,0.6,1,1.2l-1.6,8.2c-0.1,0.5-0.5,0.8-1,0.8h-18l0.4,2h17.6c0.6,0,1,0.5,1,1
					s-0.5,1-1,1H9c-0.5,0-0.9-0.3-1-0.8l-0.8-4.1c0,0,0,0,0,0C7.2,13.5,5.6,5.4,5.6,5.4z M13,24c-1.3,0-2.4-1.1-2.4-2.5
					c0-1.4,1.1-2.5,2.4-2.5s2.4,1.1,2.4,2.5C15.4,22.9,14.3,24,13,24z M23.4,24c-1.3,0-2.4-1.1-2.4-2.5c0-1.4,1.1-2.5,2.4-2.5
					c1.3,0,2.4,1.1,2.4,2.5C25.8,22.9,24.7,24,23.4,24z"/>
			</g>
			<defs>
				<filter id="icon_x2F_Utility_x2F_Cart_x2F_cart-Adobe_OpacityMaskFilter" filterUnits="userSpaceOnUse" x="-9" y="-12" width="48" height="48">
					<feColorMatrix  type="matrix" values="1 0 0 0 0  0 1 0 0 0  0 0 1 0 0  0 0 0 1 0"/>
				</filter>
			</defs>
			<mask maskUnits="userSpaceOnUse" x="-9" y="-12" width="48" height="48" id="icon_x2F_Utility_x2F_Cart_x2F_cart-mask-2">
				<g style="filter:url(#icon_x2F_Utility_x2F_Cart_x2F_cart-Adobe_OpacityMaskFilter);">
					<path id="icon_x2F_Utility_x2F_Cart_x2F_cart-path-1" style="fill:#FFFFFF;" d="M5.6,5.4C5.6,5.3,5.6,5.3,5.6,5.4L5,2.1H1c-0.6,0-1-0.5-1-1s0.5-1,1-1h4.8
						c0.5,0,0.9,0.3,1,0.8l0.6,3.3H29c0.6,0,1.1,0.6,1,1.2l-1.6,8.2c-0.1,0.5-0.5,0.8-1,0.8h-18l0.4,2h17.6c0.6,0,1,0.5,1,1
						s-0.5,1-1,1H9c-0.5,0-0.9-0.3-1-0.8l-0.8-4.1c0,0,0,0,0,0C7.2,13.5,5.6,5.4,5.6,5.4z M13,24c-1.3,0-2.4-1.1-2.4-2.5
						c0-1.4,1.1-2.5,2.4-2.5s2.4,1.1,2.4,2.5C15.4,22.9,14.3,24,13,24z M23.4,24c-1.3,0-2.4-1.1-2.4-2.5c0-1.4,1.1-2.5,2.4-2.5
						c1.3,0,2.4,1.1,2.4,2.5C25.8,22.9,24.7,24,23.4,24z"/>
				</g>
			</mask>
			<g id="icon_x2F_Utility_x2F_Cart_x2F_cart-Color_x2F_Grayscale_x2F_Night-Sky" style="mask:url(#icon_x2F_Utility_x2F_Cart_x2F_cart-mask-2);">
				<g id="icon_x2F_Utility_x2F_Cart_x2F_cart-Swatch" transform="translate(-9.000000, -12.000000)">
					<rect style="fill:#111111;" width="48" height="48"/>
				</g>
			</g>
		</g>
	</g>
</g>
</svg>
